X:1
T:Title
%%score { 1 | ( 2 3 ) }
L:1/8
Q:1/4=100
M:6/8
K:Eb
V:1 treble nm="Grand Piano"
V:2 bass 
V:3 bass 
V:1
 [B,G]FE GFE | G2 G [DF]3 | [CA]GF AGF | [B,G]GG B3 | [B,G]FE GFE | [B,G]2 G [DF]3 | [CA]GF G2 F | %7
w: Elisha~A.~Hoffman * * * * *|||||||
 F3 [G,E]3 | [DF]FF FFF | [DF]Bc d3 | [=Ac]cc cBc | [Fd]dc [DB]3 | [DF]FF FFF | [DF]Bc d3 | %14
w: |||||||
 [=Ac]cc d2 c | [DB]3 A3 | GFE GFE | G2 G [DF]3 |[M:3/8] [FA][EG][DF] | [FA][EG][DF] | %20
w: ||||||
[M:3/4] GG G B3 | GF EG FE | G2 G [DF]3 |[M:3/8] [FA][EG][DF] | [EG]2 [DF] |[M:3/4] [DF]3 E3 |] %26
w: ||||||
V:2
 z A,G, B,A,G, | B,2 E B,,3 | z B,A, CB,A, | z EB, G,3 | z A,G, B,A,G, | z2 E B,,3 | %6
 z B,A, B,2 A, | [B,,A,]3 E,,3 | z[K:treble] DD DDD | z D[K:treble]E F3 | z[K:treble] =AA .A2 A | %11
 z FE B,,3 | z[K:treble] DD DDD | z D[K:treble]E F3 | z[K:treble] =AA F2 E | z3 D3 | %16
 [E,B,E][E,A,E][E,G,] [E,B,E][E,A,E][E,G,] | [E,B,E]2 [E,B,E] [B,,B,]3 | %18
[M:3/8] [B,,B,][B,,B,][B,,B,] | [B,,B,][B,,B,][B,,B,] |[M:3/4] [E,B,E][E,B,E] [E,B,E] [E,G,E]3 | %21
 [E,B,E][E,A,E] [E,G,][E,B,E] [E,A,E][E,G,] | [E,B,E]2 [E,B,E] [B,,B,]3 | %23
[M:3/8] [B,,B,][B,,B,][B,,B,] | [B,,B,]2 [B,,A,] |[M:3/4] [B,,A,]3 [E,G,]3 |] %26
V:3
 E,,6- | E,,3 z3 | B,,6 | E,,6 | E,,6 | E,,3 z3 | B,,6 | x6 | B,,6[K:treble] | B,,6[K:treble] | %10
 F,,6[K:treble] | F,,3 z3 | B,,6[K:treble] | B,,6[K:treble] | F,,6[K:treble] | B,,6 | x6 | x6 | %18
[M:3/8] x3 | x3 |[M:3/4] x6 | x6 | x6 |[M:3/8] x3 | x3 |[M:3/4] x6 |] %26

